!!!SOCIAL_FUNCTION:	songs connected with legends of manabus
!!!PDT:	1932
!!!OTL: No_82_Dance_Inside_the_Underwater_Snake.krn
!!!REG: Wisconsin
!!!LANG: Non-Tone
!!!LING_GROUP: Algonquin
**kern
*staff1
=1-
=
*clefF4
*k[f#c#g#d#a#]
*M2/4
2c#\
=2
8c#\L
8B\J
8B\L
8B\J
=3
4B\
4r
=4
8c#\L
8c#\J
4B\
=5
8B\L
8B\J
8F#\L
8F#\J
=6
8F#\L
16F#\L
16F#\JJ
8F#\L
16F#\Jk
16r
=7
8G#\L
16F#\L
16F#\JJ
8F#\L
16F#\Jk
16r
=8
8G#\L
16F#\L
16F#\JJ
8F#\L
16F#\Jk
16r
=9
8G#\L
16F#\L
16F#\JJ
8F#\L
16F#\Jk
16r
=10
8G#\L
16F#\L
16F#\JJ
8F#\L
16F#\Jk
16r
==:|!
*-
